X: 1127
T: Merry Tailor, The
R:slip jig
N:"Collected by F. Cronin"
B:O'Neill's 1127
Z:Transcribed by Michael Hogan
M:9/8
L:1/8
K:D
|:G-| FDF G2E E2G-| FDF A2D D2E-| FDF G2E E2c | dcB A2D D2 :||
M:6/8
G | F2A ABc | ded cBA | BcB BAF | B2E E2G |
F2A ABc | ded cBA | BcB BAF | A2D D2 :||


